svgs/sharp-regular/school.svg

<svg xmlns="http://www.w3.org/2000/svg" viewBox="0 0 640 512"><!--! Font Awesome Pro 6.6.0 by @fontawesome - https://fontawesome.com License - https://fontawesome.com/license (Commercial License) Copyright 2024 Fonticons, Inc. --><path d="M466.7 144l-11.4-6.8L320 56 184.7 137.2 173.3 144 160 144 48 144l0 320 208 0 0-80c0-35.3 28.7-64 64-64s64 28.7 64 64l0 80 208 0 0-320-112 0-13.3 0zM592 96l48 0 0 48 0 320 0 48-48 0L48 512 0 512l0-48L0 144 0 96l48 0 112 0L320 0 480 96l112 0zM160 192l0 96-64 0 0-96 64 0zm320 0l64 0 0 96-64 0 0-96zM160 320l0 96-64 0 0-96 64 0zm320 0l64 0 0 96-64 0 0-96zM240 192a80 80 0 1 1 160 0 80 80 0 1 1 -160 0zm96-48l-32 0 0 16 0 32 0 16 16 0 24 0 16 0 0-32-16 0-8 0 0-16 0-16z"/></svg>

<svg xmlns="http://www.w3.org/2000/svg" viewBox="0 0 640 512"><!--! Font Awesome Pro 6.4.0 by @fontawesome - https://fontawesome.com License - https://fontawesome.com/license (Commercial License) Copyright 2023 Fonticons, Inc. --><path d="M466.7 144l-11.4-6.8L320 56 184.7 137.2 173.3 144H160 48V464H256V384c0-35.3 28.7-64 64-64s64 28.7 64 64v80H592V144H480 466.7zM592 96h48v48V464v48H592 48 0V464 144 96H48 160L320 0 480 96H592zM160 192v96H96V192h64zm320 0h64v96H480V192zM160 320v96H96V320h64zm320 0h64v96H480V320zM240 192a80 80 0 1 1 160 0 80 80 0 1 1 -160 0zm96-48H304v16 32 16h16 24 16V176H344h-8V160 144z"/></svg>
